boxicons/svg/solid/bxs-ruler.svg

<svg xmlns="http://www.w3.org/2000/svg" width="24" height="24" viewBox="0 0 24 24"><path d="M20.875 7H3.125C1.953 7 1 7.897 1 9v6c0 1.103.953 2 2.125 2h17.75C22.047 17 23 16.103 23 15V9c0-1.103-.953-2-2.125-2zM7 12H5V9h2v3zm4 1H9V9h2v4zm4-1h-2V9h2v3zm4 1h-2V9h2v4z"/></svg>

<svg xmlns="http://www.w3.org/2000/svg" width="24" height="24" viewBox="0 0 24 24"><path d="M20.875,7H3.125C1.953,7,1,7.897,1,9v6c0,1.103,0.953,2,2.125,2h17.75C22.047,17,23,16.103,23,15V9 C23,7.897,22.047,7,20.875,7z M7,12H5V9h2V12z M11,13H9V9h2V13z M15,12h-2V9h2V12z M19,13h-2V9h2V13z"/></svg>
